UI/Data/SVG/catalog_solid_24px.svg

<svg width="24" height="24" viewBox="0 0 24 24" fill="none" xmlns="http://www.w3.org/2000/svg">
<path d="M21 5.66997C21.2895 5.76957 21.5406 5.95704 21.7184 6.20623C21.8961 6.45541 21.9917 6.75387 21.9917 7.05997C21.9917 7.36607 21.8961 7.66453 21.7184 7.91371C21.5406 8.1629 21.2895 8.35037 21 8.44997L12.54 11.89C12.1811 12.0367 11.7789 12.0367 11.42 11.89L3.00002 8.44997C2.71511 8.3458 2.46909 8.15659 2.29528 7.90797C2.12147 7.65935 2.02825 7.36332 2.02825 7.05997C2.02825 6.75662 2.12147 6.46059 2.29528 6.21197C2.46909 5.96335 2.71511 5.77414 3.00002 5.66997L11.46 2.22997C11.8189 2.08326 12.2211 2.08326 12.58 2.22997L21 5.66997ZM21 15.67H20.92L13.3 18.75C12.8854 18.9114 12.4449 18.9961 12 19C11.5516 18.9992 11.1072 18.9144 10.69 18.75L3.05002 15.64H2.98002C2.69511 15.7441 2.44909 15.9333 2.27528 16.182C2.10147 16.4306 2.00825 16.7266 2.00825 17.03C2.00825 17.3333 2.10147 17.6294 2.27528 17.878C2.44909 18.1266 2.69511 18.3158 2.98002 18.42L11.44 21.86C11.7989 22.0067 12.2011 22.0067 12.56 21.86L21 18.45C21.2895 18.3504 21.5406 18.1629 21.7184 17.9137C21.8961 17.6645 21.9917 17.3661 21.9917 17.06C21.9917 16.7539 21.8961 16.4554 21.7184 16.2062C21.5406 15.957 21.2895 15.7696 21 15.67ZM3.00002 13.45L11.46 16.89C11.632 16.9586 11.8149 16.9959 12 17C12.1887 16.9992 12.3755 16.9618 12.55 16.89L21 13.45C21.2849 13.3458 21.5309 13.1566 21.7048 12.908C21.8786 12.6594 21.9718 12.3633 21.9718 12.06C21.9718 11.7566 21.8786 11.4606 21.7048 11.212C21.5309 10.9633 21.2849 10.7741 21 10.67H20.93L13.3 13.78C12.884 13.9329 12.4432 14.0075 12 14C11.5517 13.9973 11.1077 13.9126 10.69 13.75L3.05002 10.64H2.97002C2.67049 10.7356 2.40951 10.9247 2.2254 11.1796C2.04129 11.4345 1.94375 11.7417 1.94711 12.0561C1.95046 12.3705 2.05454 12.6755 2.24405 12.9264C2.43356 13.1773 2.69852 13.3608 3.00002 13.45Z" fill="#0F1621"/>
</svg>

<svg xmlns="http://www.w3.org/2000/svg" width="24" height="24" viewBox="0 0 24 24"><rect width="24" height="24" style="fill:none"/><path d="M21,5.67a1.47,1.47,0,0,1,0,2.78l-8.46,3.44a1.48,1.48,0,0,1-1.12,0L3,8.45A1.48,1.48,0,0,1,3,5.67l8.46-3.44a1.48,1.48,0,0,1,1.12,0Zm0,10-.08,0L13.3,18.75A3.67,3.67,0,0,1,12,19a3.59,3.59,0,0,1-1.31-.25L3.05,15.64l-.07,0a1.48,1.48,0,0,0,0,2.78l8.46,3.44a1.48,1.48,0,0,0,1.12,0L21,18.45A1.47,1.47,0,0,0,21,15.67ZM3,13.45l8.46,3.44A1.55,1.55,0,0,0,12,17a1.46,1.46,0,0,0,.55-.11L21,13.45a1.48,1.48,0,0,0,0-2.78l-.07,0-7.63,3.11A3.59,3.59,0,0,1,12,14a3.67,3.67,0,0,1-1.31-.25L3.05,10.64l-.08,0A1.47,1.47,0,0,0,3,13.45Z"/></svg>
